!! 00000] TT[00
!! NN
!!!OTL: Po qian ge
!!!ARE: Xinjiang, Yili (Norden)
!! Ethnic Group: Weiwuer
!! IV, 415
!!!SCT: C0425
!!!YEM: Copyright 1995, estate of Helmut Schaffrath.
**kern
*ICvox
*Ivox
*M2/4
*k[f#]
*G:
{8d
8d
=1
8.d
16f#
8d
16f#
16g
=2
8.a
16b
16a
16dd
8b
=3
16a
16dd
8cc
8b
[8a
=4
4a]}
{8d
8d
=5
8.d
16f#
8d
16f#
16g
=6
8.a
16b
16a
16dd
16cc
16dd
=7
8b
8a
8g
16e
16b
=8
[2a
=9
2a_
=10
2a]}
=11
{4r
8d
8d
=12
8.d
16f#
8d
16f#
16g
=13
8.a
16dd
16dd
16cc
8b
=14
16a
16dd
16cc
16dd
8b
8a}
=15
{8g
8fn
8e
8d
=16
4c
8r}
{16c
16d
=17
8.e
16a
16g
16a
16g
16fn
=18
8e
8d
8c
16A
16e
=19
[2d
=20
2d_
=21
2d]}
==
!!!AGN: Xushige. Libie Jiaxiang shi chang
!! Weiwuer - Lieder werden in Sued, Nord- und Ost Xingjiang eingeteilt.
!!    Nord = typisch persisch/arabisch; Ost = aehnlich wie Han.
!!    Vor-, Zwischen- und Nachspiele weggelassen.
!!!ONB: ESAC (Essen Associative Code) Database: CHINA
!!!AMT: simple duple
!!!AIN: vox
!!!EED: Helmut Schaffrath
!!!EEV: 1.0
*-
!!!ONB: Tied note syntax fixed by Craig Sapp, 2004/05/03/
